X:3360
T:Constitution Hornpipe
M:2/4
L:1/16
K:F
ce|.f2.f2 fcaf|.g2.g2 gcag|agfe dcde|gfga gcde|!
.f2.f2 fcaf|.g2.g2 gcbg|agfe cbge|f2a2 f2:|!
|:c2|Acfc acfc|Bdfd bdfd|cege bgeg|fagf edcB|!
Acfc acfc|Bdfd bdfd|cege bgeg|f2a2 f2:|!


